X:1
T:The Gypsy Laddie
M:4/4
L:1/8
K:D
 D2| F2 E2 D2 D2| F2 EE D3 D| D2 d2 B2 d2| B2A-F A2B-c| d2 F2A-FE-D|\
E-DE-F G2 BB| A2- DF A2 AF| E2 D2 D2||
